svgs/sharp-solid/square-this-way-up.svg

<svg xmlns="http://www.w3.org/2000/svg" viewBox="0 0 448 512"><!--! Font Awesome Pro 6.6.0 by @fontawesome - https://fontawesome.com License - https://fontawesome.com/license (Commercial License) Copyright 2024 Fonticons, Inc. --><path d="M448 32L0 32 0 480l448 0 0-448zM160 320l-64 0 0-128-40 0 0-24 72-72 72 72 0 24-40 0 0 128zM64 384l320 0 0 32L64 416l0-32zM248 192l0-24 72-72 72 72 0 24-40 0 0 128-64 0 0-128-40 0z"/></svg>

<svg xmlns="http://www.w3.org/2000/svg" viewBox="0 0 448 512"><!--! Font Awesome Pro 6.4.0 by @fontawesome - https://fontawesome.com License - https://fontawesome.com/license (Commercial License) Copyright 2023 Fonticons, Inc. --><path d="M448 32H0V480H448V32zM160 320H96V192H56V168l72-72 72 72v24H160V320zM64 384H384v32H64V384zM248 192V168l72-72 72 72v24H352V320H288V192H248z"/></svg>
